Numix-Light/24/panel/indicator-stickynotes-mono.svg

<svg version="1.1" viewBox="0 0 24 24" xmlns="http://www.w3.org/2000/svg">
 <path d="m3 3v18h18v-18zm2 4h2v2h-2zm4 0h10v2h-10zm-4 4h2v2h-2zm4 0h10v2h-10zm-4 4h2v2h-2zm4 0h10v2h-10z" style="fill:#353535"/>
</svg>

<svg viewBox="0 0 24 24" xmlns="http://www.w3.org/2000/svg">
 <path d="m 3,3 0,8 -1,9 1,0 0,1 18,0 0,-1 1,0 -1,-9 0,-8 z M 5,7 7,7 7,9 5,9 Z M 9,7 19,7 19,9 9,9 Z m -4,4 2,0 0,2 -2,0 z m 4,0 10,0 0,2 -10,0 z m -4,4 2,0 0,2 -2,0 z m 4,0 10,0 0,2 -10,0 z" style="fill:#353535;opacity:1;fill-opacity:1;stroke:none;fill-rule:nonzero"/>
</svg>
